!!!OTL: Cearc agus coileach, S. 177
!!!id: I0559
**kern
*clefG2
*k[f#c#]
*D:
{16d
16e
=1
8f#
8d
8f#
8g
8e
8c#
=2
8d
8e
8f#
8g
8f#
8g
=3
8a
8g
8a
8b
8g
8e
=4
8e
8f#
8g#
4a
=5
16dddd
16dddd}
{16a
16g
=6
8f#
8d
8f#
8g
8e
8c#
=7
8d
8e
8f#
8g
8f#
8g
=8
8a
8g
8a
8b
8.g
16e
=9
8e
8d
8d
4d}
{16f#
16g
=10
8a
8dd
8a
8g
8f#
8g
=11
8a
8dd
8cc#
4dd
16cc#
16dd
=12
8ee
8cc#
8a
8a
8g
8f#
=13
8e
8f#
8g#
4a
=14
16ffff#
16dddd}
{16a
16g
=15
8f#
8d
8f#
8g
8e
8c#
=16
8d
8e
8f#
8g
8f#
16g
16g
=17
8a
8dd
8a
8b
8g
8e
=18
8e
8d
8d
4d}
==
*-
!!!minrhy: 16
!!!meters: 6/8 ]  ZZ[4
!!!cut: Cearc agus coileach, S. 177
!!!reg: Irland
!!!trd: O'SULLIVAN, Donal: Song of the Irish
!!!rhy1: XX  X_X_X_X_X_X_  X_X_X_X_X_X_  X_X_X_X_X_X_  X_X_X_X__
!!!rhy2: XX  X_X_X_X_X_X_  X_X_X_X_X_X_  X_X_X_X_X_.X  X_X_X_X__
!!!key: I0559  16  D 6/8 ]  ZZ[4
!!!mod: ACHTTONSKALA DUR ?]  AMBITUS[10b
!!!kad: 5151
!!!akz: 34145625_34145621_545+1+2525_34145621_
!!!fot: 'a__aw_b__aw_
!!!for: 'a__b__c__d__
!!!fok: '$a_$d_$a_$d_
!! PHRAS[AUFTAKTIG]
!!!fkt: Scherzlied
!!!bem: Melismen, weggelassen: Vorhalt 1. Note, 4. Zeile
!! IRISCHE V
!! PR[8] 2K[5] 2G[27] 3K[5] 3G[0] 4A[7] 4Ü[0] 5A[0] 6K[0] 6G[0]
!! 7K[0] 7G[0] 8A[0] MEHR[1] SI[45] ABS[99] SR[32] SP[13]
!! ST[24] 2k[5] 2g[28] 3k[8] 3g[0] 4d[2] 4ü[0] 5d[0] 6k[0] 6g[0]
!! 7k[0] 7g[1] 8d[2] mehr[0] si[46] dm[-1] sr[33] sp[13]
!! 1F[7] 2F[32] 3F[31] 4F[6] LF[0] 2P[5] 3P[1] 4P[0] TRI[0] DF[7] AB[100]
!! TF[0] U3K[0] U3[0] U4[0] U4Ü[0] U5[4] U6K[0] U6[5] U7K[0] U7[0]
!! N1[8] N2K[0] N2[13] N3K[0] N3[15] N4[5] N4Ü[0] N5[18] N6K[0] N6[14]
!!!n7k: 0] N7[8] O1[7] O2K[0] O2[2] O3K[0] O3[1] HÖ[0
